public/images/case-studies/easylevel/tech-icon5.svg

<svg width="224" height="80" viewBox="0 0 224 80" fill="none" xmlns="http://www.w3.org/2000/svg">
<g clip-path="url(#clip0)">
<path opacity="0.45" d="M65.1911 15.0015L57.4574 29.0023H42L49.7278 15.0015H65.1911Z" fill="black"/>
<path opacity="0.6" d="M57.4571 29.0018H72.9187L65.1914 15.001H49.7275L57.4571 29.0018Z" fill="black"/>
<path opacity="0.8" d="M49.7278 42.997L57.4574 29.0022L49.7278 15.0015L42 29.0022L49.7278 42.997Z" fill="black"/>
<path opacity="0.45" d="M49.8037 63.9991L57.5374 49.9983H73.0002L65.2664 63.9991H49.8037Z" fill="black"/>
<path opacity="0.6" d="M57.5377 49.9983H42.0762L49.804 63.9991H65.2667L57.5377 49.9983Z" fill="black"/>
<path opacity="0.8" d="M65.2661 36.0022L57.5371 49.9982L65.2661 63.9989L72.9998 49.9982L65.2661 36.0022Z" fill="black"/>
</g>
<path d="M94.6159 44.2964C94.6159 45.3895 94.203 46.2318 93.3771 46.8232C92.5512 47.4072 91.3794 47.6992 89.8615 47.6992C88.2395 47.6992 86.9524 47.4484 86 46.9468V45.7451C87.2202 46.359 88.5074 46.666 89.8615 46.666C91.0594 46.666 91.9672 46.4676 92.5847 46.0708C93.2097 45.6665 93.5222 45.1312 93.5222 44.4648C93.5222 43.8509 93.2729 43.3343 92.7744 42.915C92.2834 42.4958 91.4724 42.084 90.3414 41.6797C89.1287 41.238 88.2767 40.8599 87.7857 40.5454C87.2946 40.2235 86.9226 39.8641 86.6696 39.4673C86.4241 39.063 86.3013 38.5726 86.3013 37.9961C86.3013 37.0827 86.6808 36.3602 87.4397 35.8286C88.2061 35.297 89.2737 35.0312 90.6428 35.0312C91.9523 35.0312 93.1948 35.2783 94.3704 35.7725L93.9574 36.7832C92.767 36.2891 91.6621 36.042 90.6428 36.042C89.6532 36.042 88.8683 36.2067 88.2879 36.5361C87.7076 36.8656 87.4174 37.3223 87.4174 37.9062C87.4174 38.5426 87.6406 39.0518 88.087 39.4336C88.5409 39.8154 89.4226 40.2422 90.7321 40.7139C91.8258 41.1107 92.6219 41.4701 93.1204 41.792C93.6189 42.1064 93.9909 42.4658 94.2365 42.8701C94.4894 43.2744 94.6159 43.7498 94.6159 44.2964Z" fill="black"/>
<path d="M111.431 41.354C111.431 43.3455 110.951 44.9028 109.992 46.0259C109.032 47.1414 107.707 47.6992 106.018 47.6992C104.954 47.6992 104.017 47.4409 103.206 46.9243C102.395 46.4077 101.774 45.6665 101.342 44.7007C100.911 43.7349 100.695 42.6193 100.695 41.354C100.695 39.3625 101.175 37.8127 102.135 36.7046C103.094 35.589 104.411 35.0312 106.085 35.0312C107.752 35.0312 109.058 35.5965 110.003 36.7271C110.955 37.8501 111.431 39.3924 111.431 41.354ZM101.856 41.354C101.856 43.0311 102.22 44.3413 102.949 45.2847C103.686 46.2205 104.724 46.6885 106.063 46.6885C107.402 46.6885 108.436 46.2205 109.166 45.2847C109.902 44.3413 110.271 43.0311 110.271 41.354C110.271 39.6694 109.899 38.363 109.154 37.4346C108.418 36.5062 107.38 36.042 106.041 36.042C104.701 36.042 103.667 36.5062 102.938 37.4346C102.216 38.3555 101.856 39.6619 101.856 41.354Z" fill="black"/>
<path d="M119.552 47.4746H118.448V30H119.552V47.4746Z" fill="black"/>
<path d="M128.388 47.4746H127.283V35.2671H128.388V47.4746ZM127.127 31.8755C127.127 31.1567 127.361 30.7974 127.83 30.7974C128.061 30.7974 128.239 30.891 128.366 31.0781C128.5 31.2653 128.567 31.5311 128.567 31.8755C128.567 32.2124 128.5 32.4782 128.366 32.6729C128.239 32.8675 128.061 32.9648 127.83 32.9648C127.361 32.9648 127.127 32.6017 127.127 31.8755Z" fill="black"/>
<path d="M140.561 35.0312C141.439 35.0312 142.197 35.1922 142.837 35.5142C143.477 35.8361 144.05 36.3864 144.556 37.165H144.623C144.578 36.2217 144.556 35.297 144.556 34.3911V30H145.65V47.4746H144.924L144.645 45.6104H144.556C143.633 47.0029 142.309 47.6992 140.583 47.6992C138.909 47.6992 137.629 47.1751 136.744 46.127C135.858 45.0788 135.416 43.5514 135.416 41.5449C135.416 39.4336 135.855 37.8201 136.733 36.7046C137.61 35.589 138.887 35.0312 140.561 35.0312ZM140.561 36.042C139.236 36.042 138.239 36.5099 137.57 37.4458C136.907 38.3817 136.576 39.7406 136.576 41.5225C136.576 44.9814 137.912 46.7109 140.583 46.7109C141.952 46.7109 142.956 46.3104 143.596 45.5093C144.236 44.7082 144.556 43.3867 144.556 41.5449V41.354C144.556 39.4673 144.24 38.1121 143.607 37.2886C142.982 36.4575 141.967 36.042 140.561 36.042Z" fill="black"/>
<path d="M154.496 47.4746H153.392V35.2671H154.496V47.4746ZM153.235 31.8755C153.235 31.1567 153.47 30.7974 153.938 30.7974C154.169 30.7974 154.348 30.891 154.474 31.0781C154.608 31.2653 154.675 31.5311 154.675 31.8755C154.675 32.2124 154.608 32.4782 154.474 32.6729C154.348 32.8675 154.169 32.9648 153.938 32.9648C153.47 32.9648 153.235 32.6017 153.235 31.8755Z" fill="black"/>
<path d="M165.43 46.7109C166.13 46.7109 166.74 46.651 167.261 46.5312V47.4297C166.725 47.6094 166.107 47.6992 165.408 47.6992C164.336 47.6992 163.544 47.411 163.031 46.8345C162.525 46.258 162.272 45.3521 162.272 44.1167V36.2329H160.475V35.5815L162.272 35.0762L162.83 32.3135H163.399V35.2671H166.959V36.2329H163.399V43.9595C163.399 44.8953 163.563 45.5879 163.89 46.0371C164.217 46.4863 164.731 46.7109 165.43 46.7109Z" fill="black"/>
<path d="M171.509 35.2671H172.647L175.214 42.1177C175.996 44.2215 176.49 45.6403 176.699 46.374H176.766C177.078 45.4082 177.588 43.967 178.295 42.0503L180.862 35.2671H182L176.565 49.4512C176.126 50.6042 175.758 51.3828 175.46 51.7871C175.162 52.1914 174.813 52.4946 174.411 52.6968C174.017 52.8989 173.537 53 172.971 53C172.547 53 172.075 52.9214 171.554 52.7642V51.7983C171.985 51.9181 172.45 51.978 172.949 51.978C173.328 51.978 173.663 51.8882 173.953 51.7085C174.243 51.5288 174.504 51.248 174.735 50.8662C174.973 50.4919 175.244 49.8929 175.549 49.0693C175.862 48.2533 176.063 47.7217 176.152 47.4746L171.509 35.2671Z" fill="black"/>
<defs>
<clipPath id="clip0">
<rect width="31" height="49" fill="white" transform="translate(42 15)"/>
</clipPath>
</defs>
</svg>

<svg xmlns="http://www.w3.org/2000/svg" width="224" height="80" fill="none" xmlns:v="https://vecta.io/nano"><g clip-path="url(#A)" fill="#000"><path opacity=".45" d="M65.191 15.002l-7.734 14.001H42l7.728-14.001h15.463z"/><path opacity=".6" d="M57.457 29.002h15.462l-7.727-14.001H49.728l7.73 14.001z"/><path opacity=".8" d="M49.728 42.997l7.73-13.995-7.73-14.001L42 29.002l7.728 13.995z"/><path opacity=".45" d="M49.804 63.999l7.734-14.001H73l-7.734 14.001H49.804z"/><path opacity=".6" d="M57.538 49.998H42.076l7.728 14.001h15.463l-7.729-14.001z"/><path opacity=".8" d="M65.266 36.002l-7.729 13.996 7.729 14.001L73 49.998l-7.734-13.996z"/></g><path d="M94.616 44.296c0 1.093-.413 1.935-1.239 2.527-.826.584-1.998.876-3.516.876-1.622 0-2.909-.251-3.862-.752v-1.202a8.48 8.48 0 0 0 3.862.921c1.198 0 2.106-.198 2.723-.595.625-.404.938-.94.938-1.606 0-.614-.249-1.13-.748-1.55-.491-.419-1.302-.831-2.433-1.235-1.213-.442-2.065-.82-2.556-1.134-.491-.322-.863-.681-1.116-1.078-.246-.404-.368-.895-.368-1.471 0-.913.38-1.636 1.138-2.167.766-.532 1.834-.797 3.203-.797a9.52 9.52 0 0 1 3.728.741l-.413 1.011c-1.19-.494-2.295-.741-3.315-.741-.99 0-1.774.165-2.355.494s-.87.786-.87 1.37c0 .636.223 1.146.67 1.527.454.382 1.336.809 2.645 1.28 1.094.397 1.89.756 2.388 1.078.498.314.87.674 1.116 1.078.253.404.379.88.379 1.426zm16.815-2.942c0 1.992-.48 3.549-1.439 4.672-.96 1.115-2.285 1.673-3.974 1.673-1.064 0-2.001-.258-2.812-.775s-1.432-1.258-1.864-2.224-.647-2.081-.647-3.347c0-1.992.48-3.541 1.44-4.649.959-1.116 2.276-1.673 3.95-1.673 1.667 0 2.973.565 3.918 1.696.952 1.123 1.428 2.665 1.428 4.627zm-9.575 0c0 1.677.364 2.987 1.093 3.931.737.936 1.775 1.404 3.114 1.404s2.373-.468 3.103-1.404c.736-.943 1.105-2.254 1.105-3.931 0-1.685-.372-2.991-1.117-3.919-.736-.928-1.774-1.393-3.113-1.393s-2.374.464-3.103 1.393c-.722.921-1.082 2.227-1.082 3.919zm17.696 6.121h-1.104V30h1.104v17.475zm8.836 0h-1.105V35.267h1.105v12.208zm-1.261-15.599c0-.719.234-1.078.703-1.078a.61.61 0 0 1 .536.281c.134.187.201.453.201.797 0 .337-.067.603-.201.797a.6.6 0 0 1-.536.292c-.469 0-.703-.363-.703-1.089zm13.434 3.155c.878 0 1.636.161 2.276.483s1.213.872 1.719 1.651h.067l-.067-2.774V30h1.094v17.475h-.726l-.279-1.864h-.089c-.923 1.392-2.247 2.089-3.973 2.089-1.674 0-2.954-.524-3.839-1.572s-1.328-2.576-1.328-4.582c0-2.111.439-3.725 1.317-4.84s2.154-1.673 3.828-1.673zm0 1.011c-1.325 0-2.322.468-2.991 1.404-.663.936-.994 2.295-.994 4.077 0 3.459 1.336 5.188 4.007 5.188 1.369 0 2.373-.401 3.013-1.202s.96-2.123.96-3.964v-.191c0-1.887-.316-3.242-.949-4.065-.625-.831-1.64-1.247-3.046-1.247zm13.935 11.433h-1.104V35.267h1.104v12.208zm-1.261-15.599c0-.719.235-1.078.703-1.078a.61.61 0 0 1 .536.281c.134.187.201.453.201.797 0 .337-.067.603-.201.797a.6.6 0 0 1-.536.292c-.468 0-.703-.363-.703-1.089zm12.195 14.835c.7 0 1.31-.06 1.831-.18v.898c-.536.18-1.154.27-1.853.27-1.072 0-1.864-.288-2.377-.865-.506-.576-.759-1.482-.759-2.718v-7.884h-1.797v-.651l1.797-.505.558-2.763h.569v2.954h3.56v.966h-3.56v7.727c0 .936.164 1.628.491 2.078s.841.674 1.54.674zm6.079-11.444h1.138l2.567 6.851 1.485 4.256h.067l1.529-4.324 2.567-6.783H182l-5.435 14.184c-.439 1.153-.807 1.932-1.105 2.336s-.647.707-1.049.91c-.394.202-.874.303-1.44.303-.424 0-.896-.079-1.417-.236v-.966c.431.12.896.18 1.395.18.379 0 .714-.09 1.004-.27s.551-.461.782-.842c.238-.374.509-.973.814-1.797l.603-1.595-4.643-12.208z" fill="#000"/><defs><clipPath id="A"><path fill="#fff" transform="translate(42 15)" d="M0 0h31v49H0z"/></clipPath></defs></svg>
